X: 582
T: Mai yanzhi
%%abc-version 2.0
%%abcx-abcm2ps-target-version 5.9.1 (29 Sep 2008)
%%abc-creator hum2abc beta
%%abcx-conversion-date 2013/10/02 07:52:30
%%abc-edited-by Helmut Schaffrath
%%humdrum-veritas 2082018514
%%humdrum-veritas-data 1111887413
%%continueall 1
%%barnumbers 0
L: 1/8
M: 2/4
K: F
F F F F [I:setbarnb 1]| 
d f d c | 
d f c A | 
G F G z | 
f dc2 | 
C DF2 | 
G G/ A/ F D | 
C4 |]  



